static/images/icons/mastodon.svg

<svg fill="none" height="42" viewBox="0 0 42 42" width="42" xmlns="http://www.w3.org/2000/svg" xmlns:xlink="http://www.w3.org/1999/xlink"><linearGradient id="a" gradientUnits="userSpaceOnUse" x1="8.5" x2="34.5" y1="7" y2="36"><stop offset="0" stop-color="#fec976"/><stop offset=".5" stop-color="#ffea8d"/><stop offset="1" stop-color="#cade39"/></linearGradient><clipPath id="b"><path d="m0 0h42v42h-42z"/></clipPath><g clip-path="url(#b)"><path d="m21 42c11.598 0 21-9.402 21-21 0-11.59798-9.402-21-21-21-11.59798 0-21 9.40202-21 21 0 11.598 9.40202 21 21 21z" fill="url(#a)"/><path clip-rule="evenodd" d="m28.5058 24.411h-2.7891v-6.8836c0-1.451-.606-2.1875-1.8183-2.1875-1.3403 0-2.012.8737-2.012 2.6012v3.7678h-2.7726v-3.7678c0-1.7275-.6719-2.6012-2.0122-2.6012-1.2122 0-1.8183.7365-1.8183 2.1875v6.8836h-2.789v-7.092c0-1.4495.3663-2.6013 1.1021-3.4534.7589-.8522 1.7526-1.289 2.9862-1.289 1.4273 0 2.5081.5526 3.2227 1.658l.6947 1.1732.6949-1.1732c.7144-1.1054 1.7953-1.658 3.2227-1.658 1.2334 0 2.2272.4368 2.9861 1.289.7357.8521 1.1021 2.0039 1.1021 3.4534zm4.4932-7.5465c0-5.8571-3.8092-7.57391-3.8092-7.57391-1.9207-.88866-5.2187-1.26237-8.6452-1.29059h-.0841c-3.4265.02822-6.7224.40193-8.6432 1.29059 0 0-3.80938 1.71681-3.80938 7.57391 0 1.3413-.02599 2.9449.01618 4.6456.13833 5.7279 1.04241 11.3731 6.2994 12.7748 2.4239.6464 4.505.7816 6.181.6888 3.0394-.1697 4.7457-1.0927 4.7457-1.0927l-.1002-2.2216s-2.1721.6899-4.6114.6059c-2.4168-.0835-4.9682-.2626-5.3591-3.2518-.0361-.2626-.0542-.5434-.0542-.8382 0 0 2.3725.5842 5.3792.7229 1.8385.085 3.5626-.1085 5.3137-.319 3.3582-.4039 6.2821-2.4883 6.6496-4.393.579-3.0002.5312-7.3217.5312-7.3217z" fill="#0e1025" fill-rule="evenodd"/></g></svg>

<svg width="42" height="42" viewBox="0 0 42 42" fill="none" xmlns="http://www.w3.org/2000/svg">
<g clip-path="url(#clip0_586_4524)">
<path d="M21 42C32.598 42 42 32.598 42 21C42 9.40202 32.598 0 21 0C9.40202 0 0 9.40202 0 21C0 32.598 9.40202 42 21 42Z" fill="url(#paint0_linear_586_4524)"/>
<path fill-rule="evenodd" clip-rule="evenodd" d="M28.5058 24.411H25.7167V17.5274C25.7167 16.0764 25.1107 15.3399 23.8984 15.3399C22.5581 15.3399 21.8864 16.2136 21.8864 17.9411V21.7089H19.1138V17.9411C19.1138 16.2136 18.4419 15.3399 17.1016 15.3399C15.8894 15.3399 15.2833 16.0764 15.2833 17.5274V24.411H12.4943V17.319C12.4943 15.8695 12.8606 14.7177 13.5964 13.8656C14.3553 13.0134 15.349 12.5766 16.5826 12.5766C18.0099 12.5766 19.0907 13.1292 19.8053 14.2346L20.5 15.4078L21.1949 14.2346C21.9093 13.1292 22.9902 12.5766 24.4176 12.5766C25.651 12.5766 26.6448 13.0134 27.4037 13.8656C28.1394 14.7177 28.5058 15.8695 28.5058 17.319V24.411ZM32.999 16.8645C32.999 11.0074 29.1898 9.29059 29.1898 9.29059C27.2691 8.40193 23.9711 8.02822 20.5446 8H20.4605C17.034 8.02822 13.7381 8.40193 11.8173 9.29059C11.8173 9.29059 8.00792 11.0074 8.00792 16.8645C8.00792 18.2058 7.98193 19.8094 8.0241 21.5101C8.16243 27.238 9.06651 32.8832 14.3235 34.2849C16.7474 34.9313 18.8285 35.0665 20.5045 34.9737C23.5439 34.804 25.2502 33.881 25.2502 33.881L25.15 31.6594C25.15 31.6594 22.9779 32.3493 20.5386 32.2653C18.1218 32.1818 15.5704 32.0027 15.1795 29.0135C15.1434 28.7509 15.1253 28.4701 15.1253 28.1753C15.1253 28.1753 17.4978 28.7595 20.5045 28.8982C22.343 28.9832 24.0671 28.7897 25.8182 28.5792C29.1764 28.1753 32.1003 26.0909 32.4678 24.1862C33.0468 21.186 32.999 16.8645 32.999 16.8645Z" fill="#0E1025"/>
</g>
<defs>
<linearGradient id="paint0_linear_586_4524" x1="8.5" y1="7" x2="34.5" y2="36" gradientUnits="userSpaceOnUse">
<stop stop-color="#FEC976"/>
<stop offset="0.5" stop-color="#FFEA8D"/>
<stop offset="1" stop-color="#CADE39"/>
</linearGradient>
<clipPath id="clip0_586_4524">
<rect width="42" height="42" fill="white"/>
</clipPath>
</defs>
</svg>
